react/features/base/icons/svg/HD.svg

<!-- Generated by IcoMoon.io -->
<svg version="1.1" xmlns="http://www.w3.org/2000/svg" width="32" height="32" viewBox="0 0 32 32">
<title>HD</title>
<path d="M16 32c-8.837 0-16-7.163-16-16s7.163-16 16-16c8.837 0 16 7.163 16 16s-7.163 16-16 16zM15.042 20v-7.994h-1.696v3.224h-3.65v-3.224h-1.696v7.994h1.696v-3.341h3.65v3.341h1.696zM17.008 12v8h3.19c2.426 0 3.802-1.457 3.802-4.055 0-2.504-1.393-3.945-3.802-3.945h-3.19zM18.704 13.429v5.141h1.224c1.499 0 2.342-0.909 2.342-2.598 0-1.618-0.87-2.543-2.342-2.543h-1.224z"></path>
</svg>

<svg xmlns="http://www.w3.org/2000/svg" width="32" height="32" viewBox="0 0 32 32"><path d="M16,32A16,16,0,1,1,32,16,16,16,0,0,1,16,32Zm-.958-12V12.006h-1.7V15.23H9.7V12.006H8V20H9.7V16.659h3.65V20h1.7Zm1.966-8v8H20.2c2.426,0,3.8-1.457,3.8-4.055C24,13.441,22.607,12,20.2,12Zm1.7,1.429V18.57h1.224c1.5,0,2.342-.909,2.342-2.6a2.235,2.235,0,0,0-2.342-2.543H18.7Z"/></svg>
